X: 53
M: 3/4
L: 1/8
K: G
{B2}A4 G>A | B2 cB AG | (D3 E) G A |
({c}TB3 A) Bd | e2 A2 AB/c/ | (B2 A2) GA |
g4 G2 | B>c d2 d2 | ed cB AG | G2 g2 ga |
g4 d2 | =f2 g2 fg | {=f}e2 d2 eg |
a2 A2 AB/c/ | {B}A4 G>A | B2 cB AG | D3 e dB |

